packages/icons/svgs/duotone/Source=wifi-off.svg

<svg width="24" height="24" viewBox="0 0 24 24" fill="none" xmlns="http://www.w3.org/2000/svg">
<g opacity="0.5">
<path fill-rule="evenodd" clip-rule="evenodd" d="M12.1358 15.7666C12.4128 15.2887 13.0246 15.1259 13.5024 15.4028C14.3951 15.9202 15 16.8886 15 18C15 19.6573 13.6573 21 12 21C10.8861 21 9.9144 20.3924 9.39811 19.4945C9.12281 19.0157 9.28776 18.4044 9.76654 18.1291C10.2453 17.8538 10.8566 18.0188 11.1319 18.4975C11.3056 18.7996 11.6299 19 12 19C12.5527 19 13 18.5527 13 18C13 17.6314 12.8009 17.3078 12.4996 17.1332C12.0217 16.8563 11.8589 16.2444 12.1358 15.7666Z" fill="black" style="fill:black;fill-opacity:1;"/>
<path fill-rule="evenodd" clip-rule="evenodd" d="M5.63591 11.6359C7.26385 10.008 9.51525 9 12 9C14.4848 9 16.7362 10.008 18.3641 11.6359C18.7546 12.0264 18.7546 12.6596 18.3641 13.0501C17.9736 13.4406 17.3404 13.4406 16.9499 13.0501C15.6818 11.782 13.9332 11 12 11C10.0668 11 8.31818 11.782 7.05012 13.0501C6.6596 13.4406 6.02643 13.4406 5.63591 13.0501C5.24538 12.6596 5.24538 12.0264 5.63591 11.6359Z" fill="black" style="fill:black;fill-opacity:1;"/>
<path fill-rule="evenodd" clip-rule="evenodd" d="M1.39377 7.39403C4.10671 4.68002 7.85816 3 12 3C16.1419 3 19.8933 4.68002 22.6063 7.39403C22.9967 7.78463 22.9966 8.4178 22.606 8.80825C22.2154 9.19869 21.5822 9.19857 21.1918 8.80797C18.8387 6.45398 15.5902 5 12 5C8.40987 5 5.16132 6.45398 2.80826 8.80797C2.41781 9.19857 1.78465 9.19869 1.39405 8.80825C1.00344 8.4178 1.00332 7.78463 1.39377 7.39403Z" fill="black" style="fill:black;fill-opacity:1;"/>
</g>
<path fill-rule="evenodd" clip-rule="evenodd" d="M22.7071 1.29289C23.0976 1.68342 23.0976 2.31658 22.7071 2.70711L4.70711 20.7071C4.31658 21.0976 3.68342 21.0976 3.29289 20.7071C2.90237 20.3166 2.90237 19.6834 3.29289 19.2929L21.2929 1.29289C21.6834 0.902369 22.3166 0.902369 22.7071 1.29289Z" fill="black" style="fill:black;fill-opacity:1;"/>
</svg>

<svg xmlns="http://www.w3.org/2000/svg" width="24" height="24" viewBox="0 0 24 24"><g fill-rule="evenodd" clip-rule="evenodd" opacity=".5"><path d="M12.136 15.767a1 1 0 0 1 1.366-.364 3 3 0 1 1-4.104 4.091 1 1 0 0 1 1.734-.997 1 1 0 1 0 1.368-1.364 1 1 0 0 1-.364-1.366m-6.5-4.131A8.98 8.98 0 0 1 12 9a8.98 8.98 0 0 1 6.364 2.636 1 1 0 0 1-1.414 1.414A6.98 6.98 0 0 0 12 11a6.98 6.98 0 0 0-4.95 2.05 1 1 0 0 1-1.414-1.414"/><path d="M1.394 7.394A14.95 14.95 0 0 1 12 3c4.142 0 7.893 1.68 10.606 4.394a1 1 0 0 1-1.414 1.414A12.95 12.95 0 0 0 12 5C8.41 5 5.161 6.454 2.808 8.808a1 1 0 0 1-1.414-1.414"/></g><path fill-rule="evenodd" d="M22.707 1.293a1 1 0 0 1 0 1.414l-18 18a1 1 0 0 1-1.414-1.414l18-18a1 1 0 0 1 1.414 0" clip-rule="evenodd"/></svg>
